svgs/duotone/square-rss.svg

<svg xmlns="http://www.w3.org/2000/svg" viewBox="0 0 448 512"><!--! Font Awesome Pro 6.3.0 by @fontawesome - https://fontawesome.com License - https://fontawesome.com/license (Commercial License) Copyright 2023 Fonticons, Inc. --><defs><style>.fa-secondary{opacity:.4}</style></defs><path class="fa-primary" d="M128 320c-8.189 0-16.38 3.121-22.63 9.371c-12.5 12.5-12.5 32.76 0 45.26C111.6 380.9 119.8 384 128 384s16.38-3.121 22.63-9.371c12.5-12.5 12.5-32.76 0-45.26C144.4 323.1 136.2 320 128 320zM121.6 208.1c-13.11-.4375-24.66 9.125-25.52 22.38c-.8594 13.22 9.172 24.66 22.39 25.5c54.69 3.562 102.1 50.94 105.6 105.6C224.9 374.3 235.4 384 247.1 384c.5313 0 1.062-.0313 1.594-.0625c13.22-.8438 23.25-12.28 22.39-25.5C266.9 280.6 199.4 213.1 121.6 208.1zM121 112C107.9 111.2 96.58 121.8 96.02 135C95.47 148.3 105.8 159.4 119 159.1c106.4 4.469 196.6 94.66 201 201C320.6 373.9 331.2 384 343.1 384c.3438 0 .6719 0 1.016-.0313c13.25-.5313 23.53-11.72 22.98-24.97C362.5 228.3 251.7 117.5 121 112z"/><path class="fa-secondary" d="M384 32H64C28.65 32 0 60.66 0 96v320c0 35.34 28.65 64 64 64h320c35.35 0 64-28.66 64-64V96C448 60.66 419.3 32 384 32zM150.6 374.6C144.4 380.9 136.2 384 128 384s-16.38-3.121-22.63-9.371c-12.5-12.5-12.5-32.76 0-45.26C111.6 323.1 119.8 320 128 320s16.38 3.121 22.63 9.371C163.1 341.9 163.1 362.1 150.6 374.6zM249.6 383.9C249 383.1 248.5 384 247.1 384c-12.53 0-23.09-9.75-23.92-22.44C220.5 306.9 173.1 259.5 118.4 255.9c-13.22-.8438-23.25-12.28-22.39-25.5c.8594-13.25 12.41-22.81 25.52-22.38c77.86 5.062 145.3 72.5 150.4 150.4C272.8 371.7 262.8 383.1 249.6 383.9zM345 383.1C344.7 384 344.3 384 343.1 384c-12.8 0-23.42-10.09-23.97-23C315.6 254.6 225.4 164.4 119 159.1C105.8 159.4 95.47 148.3 96.02 135C96.58 121.8 107.9 111.2 121 112c130.7 5.469 241.5 116.3 246.1 246.1C368.5 372.3 358.3 383.4 345 383.1z"/></svg>

<svg xmlns="http://www.w3.org/2000/svg" viewBox="0 0 448 512"><!-- Font Awesome Pro 6.0.0-alpha2 by @fontawesome - https://fontawesome.com License - https://fontawesome.com/license (Commercial License) --><defs><style>.fa-secondary{opacity:.4}</style></defs><path d="M384 32H64C28.654 32 0 60.656 0 96V416C0 451.344 28.654 480 64 480H384C419.348 480 448 451.344 448 416V96C448 60.656 419.348 32 384 32ZM150.627 374.629C144.379 380.879 136.189 384 128 384S111.621 380.879 105.373 374.629C92.877 362.129 92.877 341.871 105.373 329.371C111.621 323.121 119.811 320 128 320S144.379 323.121 150.627 329.371C163.125 341.871 163.125 362.129 150.627 374.629ZM249.562 383.938C249.031 383.969 248.5 384 247.969 384C235.437 384 224.875 374.25 224.047 361.562C220.5 306.875 173.125 259.5 118.438 255.938C105.219 255.094 95.188 243.656 96.047 230.438C96.906 217.188 108.453 207.625 121.563 208.062C199.422 213.125 266.891 280.562 271.953 358.438C272.812 371.656 262.781 383.094 249.562 383.938ZM345 383.969C344.656 384 344.328 384 343.984 384C331.188 384 320.562 373.906 320.016 361C315.562 254.625 225.391 164.438 119 159.969C105.75 159.438 95.469 148.25 96.016 135C96.578 121.75 107.875 111.219 121 112.031C251.719 117.5 362.516 228.281 367.984 359C368.531 372.25 358.25 383.438 345 383.969Z" class="fa-secondary"/><path d="M128.005 320C119.816 320 111.626 323.121 105.378 329.371C92.882 341.871 92.882 362.129 105.378 374.629C111.626 380.879 119.816 384 128.005 384S144.384 380.879 150.632 374.629C163.13 362.129 163.13 341.871 150.632 329.371C144.384 323.121 136.195 320 128.005 320ZM121.568 208.062C108.458 207.625 96.911 217.187 96.052 230.438C95.193 243.656 105.224 255.094 118.443 255.938C173.13 259.5 220.505 306.875 224.052 361.562C224.88 374.25 235.443 384 247.974 384C248.505 384 249.036 383.969 249.568 383.938C262.786 383.094 272.818 371.656 271.958 358.438C266.896 280.562 199.427 213.125 121.568 208.062ZM121.005 112.031C107.88 111.219 96.583 121.75 96.021 135C95.474 148.25 105.755 159.438 119.005 159.969C225.396 164.437 315.568 254.625 320.021 361C320.568 373.906 331.193 384 343.99 384C344.333 384 344.661 384 345.005 383.969C358.255 383.437 368.536 372.25 367.99 359C362.521 228.281 251.724 117.5 121.005 112.031Z" class="fa-primary"/></svg>
